frontend/public/arrow.svg

<svg width="24" height="24" viewBox="0 0 24 24" fill="none" xmlns="http://www.w3.org/2000/svg">
<path d="M20.3672 11.4328L11.5125 3.74766C11.4445 3.68906 11.3578 3.65625 11.2664 3.65625H9.19219C9.01875 3.65625 8.93906 3.87187 9.07031 3.98438L17.2781 11.1094H3.5625C3.45937 11.1094 3.375 11.1937 3.375 11.2969V12.7031C3.375 12.8062 3.45937 12.8906 3.5625 12.8906H17.2758L9.06797 20.0156C8.93672 20.1305 9.01641 20.3438 9.18984 20.3438H11.3344C11.3789 20.3438 11.4234 20.3273 11.4562 20.2969L20.3672 12.5672C20.4483 12.4966 20.5134 12.4095 20.558 12.3116C20.6025 12.2138 20.6256 12.1075 20.6256 12C20.6256 11.8925 20.6025 11.7862 20.558 11.6884C20.5134 11.5905 20.4483 11.5034 20.3672 11.4328Z" fill="#FB4A04"/>
</svg>

<?xml version="1.0" encoding="UTF-8"?>
<svg id="Layer_1" data-name="Layer 1" xmlns="http://www.w3.org/2000/svg" width="24" height="24" viewBox="0 0 24 24">
  <defs>
    <style>
      .cls-1 {
        fill: #eece93;
        stroke-width: 0px;
      }
    </style>
  </defs>
  <path class="cls-1" d="M20.37,11.43L11.51,3.75c-.07-.06-.15-.09-.25-.09h-2.07c-.17,0-.25.22-.12.33l8.21,7.13H3.56c-.1,0-.19.08-.19.19v1.41c0,.1.08.19.19.19h13.71l-8.21,7.12c-.13.11-.05.33.12.33h2.14s.09-.02.12-.05l8.91-7.73c.08-.07.15-.16.19-.26.04-.1.07-.2.07-.31s-.02-.21-.07-.31c-.04-.1-.11-.19-.19-.26Z"/>
</svg>
